X:646
T: WER SICH DES MAIEN FREUET
N: E2027
O: Europa, Mitteleuropa, Deutschland, Franken
R: geistlich, Wallfahrts - Lied
M: 4/4
L: 1/8
K: Bb
F2 | B2B2B2F2 | Bcdec2z
d | c2B2ABG2 | F4z2
F2 | B2B2B2F2 | Bcdec2z2 |
c2c2d2B2 | c3dc2z2 |
f3ed2c2 | B4e4 |
dcd2c3c | B4z2

@@@ Tune index: 5330
